!!!!SEGMENT: pl-wtm--r-1740-m--002-006_moniuszko-stanislaw--sonety-krymskie-noc.krn
!!!cenid: 18xx:2923
!!!COM: Moniuszko, Stanisław
!!!COM-rism: pe30008351
!!!CDT: 1819/05/05-1872/06/04
!!!CNT: Polish
!!!OTL: Sonety krymskie – Noc
!!!PDT:
!!!AGN: Secular
!!!SMS-siglum: PL-Wtm
!!!SMS-shelfmark: R 1740/M
!!!NIFC-rismID: 1001096358
!!!URL-scan: http://repozytorium.nifc.pl/skany/pl-wtm-nut--r1740m
!!!ONB-nifc: UWAGA: w zbiorze 2 aranżacje Sonetów. Pliki nr 001-001-010 w obsadzie vl (2), vla, vlc, cb, physharmonica, pf 4hands i pliki 002-001-009 na instrumenty dęte od skanu 0088.
!!!SMS-variant:
!!!SMS-altvar:
!!!OMD: Andantino.
**kern	**dynam	**kern	**dynam	**kern	**dynam	**kern	**dynam
*part4	*part4	*part3	*part3	*part2	*part2	*part1	*part1
*staff4	*	*staff3	*	*staff2	*	*staff1	*
*I"Corni in F.	*	*I"Fag.	*	*I"Clar. in B.	*	*I"Flauti.	*
*>[A,B,B1,B,B2,C,D,D,E]	*>[A,B,B1,B,B2,C,D,D,E]	*>[A,B,B1,B,B2,C,D,D,E]	*>[A,B,B1,B,B2,C,D,D,E]	*>[A,B,B1,B,B2,C,D,D,E]	*>[A,B,B1,B,B2,C,D,D,E]	*>[A,B,B1,B,B2,C,D,D,E]	*>[A,B,B1,B,B2,C,D,D,E]
*>A	*>A	*>A	*>A	*>A	*>A	*>A	*>A
*clefG2	*	*clefF4	*	*clefG2	*	*clefG2	*
*ITrd4c7	*	*	*	*ITrd1c2	*	*	*
*	*	*k[b-e-a-d-g-]	*	*k[b-e-a-d-g-]	*	*k[b-e-a-d-g-]	*
*M6/8	*	*M6/8	*	*M6/8	*	*M6/8	*
=1	=1	=1	=1	=1	=1	=1	=1
2.r	.	2.r	.	2.r	.	2.r	.
=2	=2	=2	=2	=2	=2	=2	=2
2.r	.	2.r	.	2.r	.	2.r	.
=3	=3	=3	=3	=3	=3	=3	=3
*	*	*	*	*^	*	*	*
!	!	!	!	!	!	!LO:DY:a:rj	!	!
2.ryy	.	2.r	.	[2.a-/	2.r	pp	2.r	.
=4	=4	=4	=4	=4	=4	=4	=4	=4
2.ryy	.	2.r	.	2.a-^</_	2.r	.	2.r	.
=5	=5	=5	=5	=5	=5	=5	=5	=5
2.ryy	.	2.r	.	2.a-^</_	2.r	.	2.r	.
=6	=6	=6	=6	=6	=6	=6	=6	=6
2.ryy	.	2.r	.	2.a-^</_	2.r	.	2.r	.
!	!	!LO:TX:B:t=O:color=red	!	!	!	!	!	!
.	.	.	pp	.	.	.	.	.
=7	=7	=7	=7	=7	=7	=7	=7	=7
*	*	*^	*	*	*	*	*^	*
!	!	!	!	!	!	!	!	!	!	!LO:DY:a:rj
2.r	.	[2.AA-/	2.r	.	8a-/]	2.r	.	2.a-/	2.r	pp
.	.	.	.	.	8r	.	.	.	.	.
.	.	.	.	.	4r	.	.	.	.	.
.	.	.	.	.	4r	.	.	.	.	.
*	*	*	*	*	*v	*v	*	*	*	*
=8	=8	=8	=8	=8	=8	=8	=8	=8	=8
2.r	.	2.AA-/_	2.r	.	2.r	.	2.a-/	2.r	.
=9	=9	=9	=9	=9	=9	=9	=9	=9	=9
2.r	.	2.AA-/_	2.r	.	2.r	.	2.a-/	2.r	.
=10	=10	=10	=10	=10	=10	=10	=10	=10	=10
!	!LO:DY:a:rj	!	!	!	!	!	!	!	!
[2.F/	pp	2.AA-/_	2.r	.	2.r	.	2.a-/	2.r	.
*	*	*	*	*	*	*	*v	*v	*
!!LO:LB:g=original
=11	=11	=11	=11	=11	=11	=11	=11	=11
*	*	*	*	*	*^	*	*	*
*	*	*2\right	*	*	*	*	*	*	*
!	!	!	!LO:TX:b:t=a:color=red	!	!	!	!	!	!
2.F/]	.	8AA-/]	[>2.AA-\	.	[2.a-/	2.r	.	2.ryy	.
.	.	8rA	.	.	.	.	.	.	.
.	.	8rA	.	.	.	.	.	.	.
.	.	4rA	.	.	.	.	.	.	.
.	.	8rA	.	.	.	.	.	.	.
=12	=12	=12	=12	=12	=12	=12	=12	=12	=12
4.F/	.	2.rc	2.AA-\_>	.	2.a-^</_	2.r	.	2.ryy	.
8G-X/L	.	.	.	.	.	.	.	.	.
8F/	.	.	.	.	.	.	.	.	.
8E-X/J	.	.	.	.	.	.	.	.	.
=13	=13	=13	=13	=13	=13	=13	=13	=13	=13
4A-X/	.	2.rc	2.AA-\]	.	2.a-^</]	2.r	.	2.ryy	.
8r	.	.	.	.	.	.	.	.	.
4r	.	.	.	.	.	.	.	.	.
!LO:TX:t=P:problem:kreska taktowa pojedyncza, kolor czerwony	!	!	!LO:TX:t=P:problem:kreska taktowa pojedyncza, kolor czerwony	!	!LO:TX:t=P:problem:kreska taktowa pojedyncza, kolor czerwony	!	!	!LO:TX:t=P:problem:kreska taktowa pojedyncza, kolor czerwony	!
8r	.	.	.	.	.	.	.	.	.
*	*	*	*	*	*v	*v	*	*	*
=14	=14	=14	=14	=14	=14	=14	=14	=14
2.r	.	[2.A-/	2.D-\	.	[>2.a-^</	.	2.ryy	.
=15	=15	=15	=15	=15	=15	=15	=15	=15
*	*	*	*	*	*^	*	*	*
*	*	*	*	*	*2\right	*	*	*	*
[2.F/	.	2.A-/]	8F\	.	8a-/]	[2.d-\	.	[2.a-/	.
.	.	.	8r	.	8r	.	.	.	.
.	.	.	8r	.	8r	.	.	.	.
.	.	.	4r	.	4r	.	.	.	.
.	.	.	8r	.	8r	.	.	.	.
=16	=16	=16	=16	=16	=16	=16	=16	=16	=16
2.F/_	.	2.A-/	2.r	.	2.ryy	2.d-\_	.	2.a-/]	.
=17	=17	=17	=17	=17	=17	=17	=17	=17	=17
8F/]	.	4.F/	2.AA-\	.	(4.d-/	8d-\]	.	(>4.a-/	.
8r	.	.	.	.	.	8r	.	.	.
2r	.	.	.	.	.	8r	.	.	.
.	.	4.E-/	.	.	8g-/L	4r	.	8b-/L	.
.	.	.	.	.	8f/	.	.	8a-/	.
.	.	.	.	.	8e-/J	8r	.	8g-/J	.
=18	=18	=18	=18	=18	=18	=18	=18	=18	=18
2.r	.	4D-/	2.D-\	.	(4d-/)	2.r	.	[>4.a-/)	.
.	.	2ryy	.	.	8c/	.	.	.	.
.	.	.	.	.	4.d-/)	.	.	4a-/]	.
!LO:TX:t=P:problem:kreska taktowa początek repetycji, kolor czerwony	!	!LO:TX:t=P:problem:kreska taktowa początek repetycji, kolor czerwony	!	!	!LO:TX:t=P:problem:kreska taktowa początek repetycji, kolor czerwony	!	!	!LO:TX:t=P:problem:kreska taktowa początek repetycji, kolor czerwony	!
.	.	.	.	pp	.	.	.	8r	.
*	*	*	*	*	*v	*v	*	*	*
=19!|:	=19!|:	=19!|:	=19!|:	=19!|:	=19!|:	=19!|:	=19!|:	=19!|:
*>B	*>B	*>B	*>B	*>B	*>B	*>B	*>B	*>B
!	!	!	!LO:N:vis=4.	!	!	!LO:DY:a	!	!
2.r	.	[2.E-/	4AA-\	.	[>2.G-/	pp	2.r	.
.	.	.	8r	.	.	.	.	.
.	.	.	4r	.	.	.	.	.
.	.	.	8r	.	.	.	.	.
=20	=20	=20	=20	=20	=20	=20	=20	=20
2.r	.	2.E-/_	2.r	.	2.G-/_>	.	2.r	.
=21	=21	=21	=21	=21	=21	=21	=21	=21
2.r	.	2.E-/_	2.r	.	2.G-/_>	.	2.r	.
=22	=22	=22	=22	=22	=22	=22	=22	=22
2.r	.	2.E-/]	2.r	.	2.G-/]	.	2.r	.
=23	=23	=23	=23	=23	=23	=23	=23	=23
2.r	.	(4.E-/	4.AA-\	<[	2.G-^>/	.	2.r	.
.	.	4.D-/	4.BB--\	>]	.	.	.	.
=24	=24	=24	=24	=24	=24	=24	=24	=24
!	!	!	!	!	!LO:TX:t=P:problem:brak początku ligatury	!	!	!
2.r	.	4.E-/	4.AA-\	<[	[2.G-^>/	.	2.r	.
!	!	!LO:TX:t=P:problem:brak początku łuku	!	!	!	!	!	!
.	.	4.D-/	(4.BB--\	>]	.	.	.	.
!!LO:LB:g=original
=25	=25	=25	=25	=25	=25	=25	=25	=25
2.ryy	.	8E-/)	8AA-\)	]	8G-/]	.	2.ryy	.
.	.	8r	8ryy	.	8r	.	.	.
.	.	8r	2ryy	.	8r	.	.	.
.	.	4r	.	.	4r	.	.	.
!LO:TX:t=P:problem:kreska taktowa pojedyncza, kolor czerwony	!	!LO:TX:t=P:problem:kreska taktowa pojedyncza, kolor czerwony	!	!	!LO:TX:t=P:problem:kreska taktowa pojedyncza, kolor czerwony	!	!LO:TX:t=P:problem:kreska taktowa pojedyncza, kolor czerwony	!
.	.	8r	.	.	8r	.	.	.
*	*	*v	*v	*	*	*	*	*
=26	=26	=26	=26	=26	=26	=26	=26
!	!	!	!	!	!	!LO:TX:a:B:t=A:color=red:note=w czerwonym okręgu	!
2.r@	.	2.r@	.	2.r@	.	2.r@	.
=27	=27	=27	=27	=27	=27	=27	=27
*	*	*^	*	*	*	*	*
!	!	!LO:TX:a:t=Soli	!	!	!	!	!	!
2.ryy	.	4.EE-/	2.AA-\	.	2.ryy	.	2.ryy	.
.	.	4.FF/	.	.	.	.	.	.
=28	=28	=28	=28	=28	=28	=28	=28	=28
2.ryy	.	4.GG-/	2.r	.	2.ryy	.	2.ryy	.
.	.	4.AA-/	.	.	.	.	.	.
=29	=29	=29	=29	=29	=29	=29	=29	=29
2.ryy	.	4.BB-/	2.r	.	2.ryy	.	2.ryy	.
.	.	4.C-X/	.	.	.	.	.	.
=30	=30	=30	=30	=30	=30	=30	=30	=30
2.ryy	.	4.Cn/	2.r	.	2.ryy	.	2.ryy	.
.	.	4.D-/	.	.	.	.	.	.
=31	=31	=31	=31	=31	=31	=31	=31	=31
2.ryy	.	4.G-/	2.E-\	.	2.ryy	.	2.ryy	.
.	.	[4.A-/	.	.	.	.	.	.
=32	=32	=32	=32	=32	=32	=32	=32	=32
2.ryy	.	4.A-/]	2.D-\	.	2.ryy	.	2.ryy	.
.	.	8B-/L	.	.	.	.	.	.
.	.	8A-/	.	.	.	.	.	.
.	.	8G-/J	.	.	.	.	.	.
!!LO:LB:g=original
=33	=33	=33	=33	=33	=33	=33	=33	=33
2.r	.	4F/	4D-\	.	8r	.	2.r	.
.	.	.	.	.	8r	.	.	.
.	.	8r	2ryy	.	(8A-/	.	.	.
.	.	4r	.	.	4B-/	.	.	.
.	.	8r	.	.	8A-/)	.	.	.
*	*	*v	*v	*	*	*	*	*
=34	=34	=34	=34	=34	=34	=34	=34
!LO:TX:t=1ma	!	!	!	!	!	!	!
*>B1	*>B1	*>B1	*>B1	*>B1	*>B1	*>B1	*>B1
2.r	.	2.r	.	[4.A-/	.	2.r	.
.	.	.	.	4A-/]	.	.	.
.	.	.	.	8r	.	.	.
=35:|!	=35:|!	=35:|!	=35:|!	=35:|!	=35:|!	=35:|!	=35:|!
!LO:TX:t=2da	!	!	!	!	!	!	!
*>B2	*>B2	*>B2	*>B2	*>B2	*>B2	*>B2	*>B2
!	!LO:DY:rj	!	!	!	!	!	!
[2.F/	pp	[2.A- [>2.AA-\	pp	4A-/	.	2.r	.
.	.	.	.	8r	.	.	.
.	.	.	.	4r	.	.	.
.	.	.	.	8r	.	.	.
=36	=36	=36	=36	=36	=36	=36	=36
*>C	*>C	*>C	*>C	*>C	*>C	*>C	*>C
*	*	*	*	*^	*	*	*
*rep	*	*rep	*	*	*	*	*	*
!	!	!	!	!LO:TX:a:t=Clar	!	!	!	!
2.F/_	.	2.A-_ 2.AA-\_>	.	16dd-/LL	2.r	.	2.r	.
.	.	.	.	16ee-/	.	.	.	.
.	.	.	.	16gg-/	.	.	.	.
.	.	.	.	16ff/	.	.	.	.
.	.	.	.	16ee-/	.	.	.	.
.	.	.	.	16dd-/JJ	.	.	.	.
.	.	.	.	16cc/LL	.	.	.	.
.	.	.	.	16b-/	.	.	.	.
.	.	.	.	16a-/	.	.	.	.
.	.	.	.	16g-/	.	.	.	.
.	.	.	.	16f/	.	.	.	.
.	.	.	.	16dd-/JJ	.	.	.	.
*Xrep	*	*Xrep	*	*	*	*	*	*
=37	=37	=37	=37	=37	=37	=37	=37	=37
*rep	*	*rep	*	*	*	*	*	*
2.F/_	.	2.A-_ 2.AA-\_>	.	2.dd-/	2.r	.	2.r	.
*Xrep	*	*Xrep	*	*	*	*	*	*
=38	=38	=38	=38	=38	=38	=38	=38	=38
*rep	*	*rep	*	*	*	*	*	*
2.F/]	.	2.A-] 2.AA-\]	.	16a-/LL	2.r	.	2.r	.
.	.	.	.	16b-/	.	.	.	.
.	.	.	.	16dd-/	.	.	.	.
.	.	.	.	16cc-X/	.	.	.	.
.	.	.	.	16b-/	.	.	.	.
.	.	.	.	16a-/JJ	.	.	.	.
.	.	.	.	16g-/LL	.	.	.	.
.	.	.	.	16f/	.	.	.	.
.	.	.	.	16e-/	.	.	.	.
.	.	.	.	16d-/	.	.	.	.
.	.	.	.	16c-X/	.	.	.	.
.	.	.	.	16a-/JJ	.	.	.	.
*Xrep	*	*Xrep	*	*	*	*	*	*
*	*	*	*	*v	*v	*	*	*
=39	=39	=39	=39	=39	=39	=39	=39
2.ryy	.	2.ryy	.	2.ryy	.	8r	.
.	.	.	.	.	.	8r	.
.	.	.	.	.	.	(16dd-\LL	.
.	.	.	.	.	.	16ddd-\JJ)	.
.	.	.	.	.	.	[4.ddd-\	.
=40	=40	=40	=40	=40	=40	=40	=40
2.ryy	.	2.ryy	.	2.ryy	.	8ddd-\]	.
.	.	.	.	.	.	8r	.
.	.	.	.	.	.	(16dd-\LL	.
.	.	.	.	.	.	16ddd-\JJ)	.
.	.	.	.	.	.	[4.ddd-\	.
!!LO:LB:g=original
=41	=41	=41	=41	=41	=41	=41	=41
2.ryy	.	2.r	.	2.r	.	8ddd-\]	.
.	.	.	.	.	.	8r	.
.	.	.	.	.	.	(16dd-\LL	.
.	.	.	.	.	.	16ddd-\JJ)	.
.	.	.	.	.	.	8aa-\	.
.	.	.	.	.	.	8r	.
.	.	.	.	.	.	(16a-\LL	.
!	!	!	!	!LO:TX:a:B:t=30:color=red	!	!	!
.	.	.	.	.	.	16aa-\JJ)	.
=42	=42	=42	=42	=42	=42	=42	=42
2.r	.	2.r	.	2.r	.	8dd-\	.
.	.	.	.	.	.	8r	.
.	.	.	.	.	.	(16dd-\LL	.
.	.	.	.	.	.	16ddd-\JJ)	.
.	.	.	.	.	.	8aa-\	.
.	.	.	.	.	.	8r	.
.	.	.	.	.	.	(16a-\LL	.
!	!	!	!LO:DY:t=ppp.	!	!	!LO:DY:rj	!
.	ppp	.	ppp	.	ppp	16aa-\JJ)	.
=43	=43	=43	=43	=43	=43	=43	=43
*	*	*	*	*^	*	*	*
*	*	*	*	*	*	*	*2\right	*
([2.F/	.	([2.d- [>2.A-\	.	([2.a-/	[>2.f\	.	([2.ff 2.dd-\	.
*	*	*	*	*v	*v	*	*	*
=44	=44	=44	=44	=44	=44	=44	=44
4F/]	.	4d-] 4A-\]	.	4a-] 4f/]	.	4ff] 4dd-\	.
8F/|	.	8d- 8A-'\	.	8a-| 8f/	.	8ff| 8dd-\	.
4F/|	.	4d- 4A-'\	.	4a-| 4f/	.	4ff| 4dd-\	.
8F/)|	.	8d- 8A-'\)	.	8a-| 8f/)	.	8ff| 8dd-\)	.
=45	=45	=45	=45	=45	=45	=45	=45
!	!	!	!	!	!	!LO:TX:B:b:t=E:color=red:note=w niebieskim okręgu	!
4F/	.	4d- 4A-\	.	4a- 4f/	.	4ff 4dd-\	.
8r	.	8r	.	8r	.	8r	.
4r	.	4r	.	4r	.	4r	.
8r	.	8r	.	8r	.	8r	.
=46	=46	=46	=46	=46	=46	=46	=46
2.r	.	2.r	.	2.r	.	2.r	.
.	.	.	pp	.	.	.	.
=47	=47	=47	=47	=47	=47	=47	=47
2.r	.	[2.D- [2.DD-/	.	2.r	.	2.r	.
=48	=48	=48	=48	=48	=48	=48	=48
*	*	*rep	*	*	*	*	*
2.r	.	2.D-] 2.DD-/]	.	2.r	.	2.r	.
*	*	*Xrep	*	*	*	*	*
!!LO:PB:g=original
=49	=49	=49	=49	=49	=49	=49	=49
(>4.F/	.	2.AA- 2.DD-/	.	(>4.F/	.	2.r	.
4.E-X/	.	.	.	4.G-/	.	.	.
=50	=50	=50	=50	=50	=50	=50	=50
[2.F/	.	2.D- 2.DD-/	.	[2.A-/)	.	2.r	.
=51	=51	=51	=51	=51	=51	=51	=51
*	*	*rep	*	*	*	*	*
4F/])	.	2.D- 2.DD-/	.	4A-/]	.	2.r	.
8r	.	.	.	8r	.	.	.
4r	.	.	.	4r	.	.	.
8r	.	.	.	8r	.	.	.
*	*	*Xrep	*	*	*	*	*
=52	=52	=52	=52	=52	=52	=52	=52
*	*	*rep	*	*	*	*	*
2.ryy	.	2.D- 2.DD-/	.	2.r	.	2.r	.
*	*	*Xrep	*	*	*	*	*
=53	=53	=53	=53	=53	=53	=53	=53
(>4.F/	.	[2.AA- [2.DD-/	.	[2.A-/	.	2.r	.
4E-X/	.	.	.	.	.	.	.
8G-X/	.	.	.	.	.	.	.
=54	=54	=54	=54	=54	=54	=54	=54
*	*	*^	*	*	*	*	*
2.F/)	.	4.AA-/]	2.DD-\]	.	2.A-/]	.	2.r	.
!LO:TX:t=P:problem:kreska taktowa początek repetycji, kolor czerwony/niebieski	!	!LO:TX:t=P:problem:kreska taktowa początek repetycji, kolor czerwony/niebieski	!	!	!LO:TX:t=P:problem:kreska taktowa początek repetycji, kolor czerwony/niebieski	!	!LO:TX:t=P:problem:kreska taktowa początek repetycji, kolor czerwony/niebieski	!
.	.	4.D-/	.	.	.	.	.	.
=55!|:	=55!|:	=55!|:	=55!|:	=55!|:	=55!|:	=55!|:	=55!|:	=55!|:
*>D	*>D	*>D	*>D	*>D	*>D	*>D	*>D	*>D
*	*	*	*	*	*^	*	*	*
2.ryy	.	4AA-/	4AA-\	.	[2.e-/	[2.G-\	.	2.ryy	.
.	.	8r	8ryy	.	.	.	.	.	.
.	.	4r	4ryy	.	.	.	.	.	.
.	.	8r	8ryy	.	.	.	.	.	.
*	*	*v	*v	*	*	*	*	*	*
=56	=56	=56	=56	=56	=56	=56	=56	=56
*	*	*	*	*rep	*rep	*	*	*
2.ryy	.	2.r	.	2.e-/_	2.G-\_	.	2.ryy	.
*	*	*	*	*Xrep	*Xrep	*	*	*
=57	=57	=57	=57	=57	=57	=57	=57	=57
*	*	*^	*	*	*	*	*	*
*	*	*	*	*	*rep	*rep	*	*	*
2.ryy	.	[2.AA-/	2.r	.	2.e-/_	2.G-\_	.	2.ryy	.
*	*	*	*	*	*Xrep	*Xrep	*	*	*
=58	=58	=58	=58	=58	=58	=58	=58	=58	=58
*	*	*	*	*	*rep	*rep	*	*	*
2.ryy	.	2.AA-/]	2.r	.	2.e-/]	2.G-\_	.	2.ryy	.
*	*	*	*	*	*Xrep	*Xrep	*	*	*
!!LO:LB:g=original
=59	=59	=59	=59	=59	=59	=59	=59	=59	=59
*	*	*	*	*	*	*	*	*^	*
!	!LO:HP:a	!	!	!	!	!	!LO:HP:a	!	!	!
(>4.A-X/	<	[2.G-/	[>2.E-\	<	(4.e-/	8G-\]	<	(4.cc/	2.r	<
.	.	.	.	.	.	8r	.	.	.	.
.	.	.	.	.	.	8r	.	.	.	.
!	!LO:HP:a	!	!	!	!	!	!LO:HP:a	!	!	!
4.A/	[ >	.	.	[ >	4.d-/	8ryy	[ >	4.dd-/	.	[ >
.	]]	.	.	]]	.	4ryy	]]	.	.	]]
*	*	*	*	*	*v	*v	*	*	*	*
=60	=60	=60	=60	=60	=60	=60	=60	=60	=60
*	*	*rep	*rep	*	*	*	*	*	*
!	!LO:HP:a	!	!	!	!	!LO:HP:a	!	!	!
4.A-X/	<	2.G-/]	2.E-\]	<	4.e-/	<	4.cc/	2.r	<
4.A/)	[ >]	.	.	[ >]	4.d-/)	[ >]	4.dd-/)	.	[ >]
*	*	*Xrep	*Xrep	*	*	*	*	*	*
*	*	*	*	*	*	*	*v	*v	*
=61	=61	=61	=61	=61	=61	=61	=61	=61
*	*	*	*^	*	*	*	*	*
!	!	!	!	!LO:S:s=1:note:problem:note-level slur	!	!	!	!	!
8A-X/	.	[2.G-/	4.AA-\	(4.AA-/	[	8e-/	.	4g-/	.
8r	.	.	.	.	.	8r	.	.	.
8r	.	.	.	.	.	8r	.	8r	.
4r	.	.	4.AAn\	4.AAn/	.	4r	.	4r	.
8r	.	.	.	.	.	8r	.	8r	.
=62	=62	=62	=62	=62	=62	=62	=62	=62	=62
2.r	.	4G-/]	4.BB-\	4.BB-/	.	2.ryy	.	2.ryy	.
.	.	8rc	.	.	.	.	.	.	.
.	.	4rc	4.C-X\	4.C-/)	.	.	.	.	.
.	.	8rc	.	.	.	.	.	.	.
*	*	*	*v	*v	*	*	*	*	*
=63	=63	=63	=63	=63	=63	=63	=63	=63
2.r	.	(4.Cn/	8Cn\	.	2.ryy	.	2.ryy	.
.	.	.	8r	.	.	.	.	.
.	.	.	8r	.	.	.	.	.
.	.	4.D-/	4r	.	.	.	.	.
.	.	.	8r	.	.	.	.	.
=64	=64	=64	=64	=64	=64	=64	=64	=64
2.r	.	4.E-/	2.r	.	2.ryy	.	2.ryy	.
.	.	4.F/)	.	.	.	.	.	.
=65	=65	=65	=65	=65	=65	=65	=65	=65
2.r	.	(4.G-/	4.G-\	.	2.ryy	.	2.ryy	.
.	.	4.A-/	8ryy	.	.	.	.	.
.	.	.	4ryy	.	.	.	.	.
=66	=66	=66	=66	=66	=66	=66	=66	=66
2.r	.	2.r	4.An\	.	2.ryy	.	2.ryy	.
.	.	.	4.B-\	.	.	.	.	.
=67	=67	=67	=67	=67	=67	=67	=67	=67
2.r	.	(4.G-/)	2.E-\	.	2.ryy	.	2.ryy	.
.	.	[4.A-/	.	.	.	.	.	.
=68	=68	=68	=68	=68	=68	=68	=68	=68
!	!	!LO:N:vis=4	!	!	!	!	!	!
2.r	.	4.A-/]	2.D-\	.	2.ryy	.	2.ryy	.
.	.	8B-/L	.	.	.	.	.	.
.	.	8A-/	.	.	.	.	.	.
.	.	8G-/J)	.	.	.	.	.	.
!!LO:LB:g=original
=69	=69	=69	=69	=69	=69	=69	=69	=69
2.r	.	4F/	4D-\	.	8r	.	2.ryy	.
.	.	.	.	.	8r	.	.	.
.	.	8r	2ryy	.	(8A-/	.	.	.
.	.	4r	.	.	4B-/	.	.	.
.	.	8r	.	.	8A-/)	.	.	.
*	*	*v	*v	*	*	*	*	*
=70	=70	=70	=70	=70	=70	=70	=70
[2.F/	.	[2.D- [2.AA-\	.	[2.A-/	.	2.ryy	.
!LO:TX:t=P:problem:kreska taktowa koniec repetycji, kolor niebieski	!	!LO:TX:t=P:problem:kreska taktowa koniec repetycji, kolor niebieski	!	!LO:TX:t=P:problem:kreska taktowa koniec repetycji, kolor niebieski	!	!LO:TX:t=P:problem:kreska taktowa koniec repetycji, kolor niebieski	!
=71:|!	=71:|!	=71:|!	=71:|!	=71:|!	=71:|!	=71:|!	=71:|!
*>E	*>E	*>E	*>E	*>E	*>E	*>E	*>E
(4F/]	.	2.D-] 2.AA-\]	.	(>4A-/]	.	2.ryy	.
8F/|	.	.	.	8A-'/	.	.	.
4F/|	.	.	.	4A-'/	.	.	.
8F/)|	.	.	.	8A-'/)	.	.	.
=72	=72	=72	=72	=72	=72	=72	=72
2.F/	.	[2.D- [>2.AA-\	.	2.A-/	.	2.ryy	.
=73	=73	=73	=73	=73	=73	=73	=73
(4F/	.	2.D-]yy 2.AA-\]yy	.	(4A-/	.	2.ryy	.
8F'/	.	.	.	8A-'/	.	.	.
4F'/	.	.	.	4A-'/	.	.	.
8F'/)	.	.	.	8A-'/)	.	.	.
=74	=74	=74	=74	=74	=74	=74	=74
[2.F/	.	[2.A- [>2.DD-/	.	[2.c-X/	.	2.ryy	.
=75	=75	=75	=75	=75	=75	=75	=75
2.F/_yy	.	2.A-_ 2.DD-/_>	.	2.c-/_	.	2.ryy	.
=76	=76	=76	=76	=76	=76	=76	=76
2.F/]yy	.	2.A-] 2.DD-/]	.	2.c-/_	.	2.ryy	.
=77	=77	=77	=77	=77	=77	=77	=77
*	*	*^	*	*	*	*	*
4F/	.	4A-/	4ryy	.	4c-/]	.	2.r	.
8r	.	8r	8ryy	.	8r	.	.	.
4E-X/	.	4G-/	4AA-\	.	4c/	.	.	.
8r	.	8r	8ryy	.	8r	.	.	.
=78	=78	=78	=78	=78	=78	=78	=78	=78
4F/	.	4F/	4AA-\	.	4d-/	.	2.r	.
8r	.	8r	2ryy	.	8r	.	.	.
4r	.	4r	.	.	4r	.	.	.
8r	.	8r	.	.	8r	.	.	.
*	*	*v	*v	*	*	*	*	*
==	==	==	==	==	==	==	==
*-	*-	*-	*-	*-	*-	*-	*-
!!!system-decoration: [(s1,s2,s3,s4)]
!!!RDF**kern: > = above
!!!RDF**kern: < = below
!!!RDF**kern: | = vertical stroke
!!!RDF**dynam: pp = "pp."
!!!RDF**kern: @ = marked note, color=red
!!!ENC: Anastazja Marusiak
!!!END: 2021-08-19
!!!ENC: Andrzej Kubiczek
!!!END: 2021-09-13
